build/img/0-common/time.svg

<svg width="35" height="35" viewBox="0 0 35 35" fill="none" xmlns="http://www.w3.org/2000/svg">
<rect width="35" height="35" rx="3" fill="#0064CB"/>
<path d="M17.5 9C12.8129 9 9 12.8129 9 17.5C9 22.1871 12.8129 26 17.5 26C22.1871 26 26 22.1871 26 17.5C26 12.8129 22.1871 9 17.5 9ZM21.5425 21.8966C21.4044 22.0347 21.223 22.1042 21.0417 22.1042C20.8604 22.1042 20.6789 22.0347 20.5409 21.8966L16.9992 18.355C16.866 18.2226 16.7917 18.0425 16.7917 17.8542V13.25C16.7917 12.8583 17.109 12.5417 17.5 12.5417C17.891 12.5417 18.2083 12.8583 18.2083 13.25V17.561L21.5425 20.895C21.8194 21.1721 21.8194 21.6197 21.5425 21.8966Z" fill="white"/>
</svg>

<svg width="35" height="35" fill="none" xmlns="http://www.w3.org/2000/svg"><rect width="35" height="35" rx="3" fill="#0064CB"/><path d="M17.5 9C12.813 9 9 12.813 9 17.5c0 4.687 3.813 8.5 8.5 8.5 4.687 0 8.5-3.813 8.5-8.5 0-4.687-3.813-8.5-8.5-8.5zm4.043 12.897a.707.707 0 01-1.002 0l-3.542-3.542a.705.705 0 01-.207-.5V13.25a.708.708 0 111.416 0v4.311l3.335 3.334a.708.708 0 010 1.002z" fill="#fff"/></svg>
